X:329
T:
R:polska
S:Efter »Florsen» i Burs.
O:Gotland, Burs
M:3/4
L:1/16
K:F
LF3f fafc AcAG|F3c cdcB B2A2|F2A2 c2e2 f2a2|fefa gfed cBAG|
LF3f fafc AcAG|F3c cdcB B2A2|F2A2 c2f2 a3A|cBAB G4 F4:|
|:e3g eceg agfe|fcfa fcfa bagf|e3g eceg agfe|fcfa fcfa bagf|
dcde fefg a3A|cABG G4 F4:|

